!!!!SEGMENT: pl-stab--75a--006_rodowski-aleksander--missa-pastorales-benedictus.krn
!!!cenid: 18xx:3409
!!!COM: Rodowski, Aleksander
!!!COM-rismID: pe30009627
!!!CDT: <1790->1810
!!!CNT: Polish
!!!OPR: Missa Pastorales
!!!OTL: Benedictus
!!!OMV: 006
!!!PDT: 1850
!!!AGN:
!!!SMS-siglum: PL-STAb
!!!SMS-shelfmark: 75a
!!!SMS-shelfwork: M
!!!SMS-variant: Partytura: PL-STAb 75a:10-11
!!!SMS-altvar: Canto: PL-STAb 75a:6, Organo.: PL-STAb 75a:9
!!!NIFC-rismSourceID: 301050718
!!!NIFC-rismChildID: 301050718
!!!NIFC-islandoraID: pl-stab:4458
!!!URL-pdf-islandora: https://repozytorium.nifc.pl/islandora/object/pl-stab%3A4458/datastream/PDF/view
!!!URL-scan: https://polish.musicsources.pl/pl/lokalizacje/galeria/rekopisy/4548/10 @EN{Scan on Polish Music Sources Website} @PL{Skany w portalu Dziedzictwo Muzyki Polskiej w otwartym dostępie}
!!!ONB-nifc: UWAGA: na podstawie partytury (s. 3-5, 10-11). W źródle znajdują się także głosy. Proszę o wypełnienie pól SMS:variant i SMS:altvar. UWAGA: części Mszy: 1. Kyrie, 2. Gloria, 3. Credo, 4. Et incarnatus, 5. Sanctus, 6. Benedictus, 7. Agnus Dei
!!!OMD: Andante
!!!AIN: 1 bass 1 organ 1 soprn
!!!key: F
**kern	**kern	**kern	**kern	**text
*part3	*part3	*part2	*part1	*part1
*staff4	*staff3	*staff2	*staff1	*staff1
*>[A,A,B,B]	*>[A,A,B,B]	*>[A,A,B,B]	*>[A,A,B,B]	*>[A,A,B,B]
*>A	*>A	*>A	*>A	*>A
*I"Organo	*	*I"Basſ	*I"Cant.	*
*Iorgan	*	*Ibass	*Isoprn	*
*ICklav	*	*ICvox	*ICvox	*
*clefF4	*clefG2	*clefF4	*clefG2	*
*k[b-]	*k[b-]	*k[b-]	*k[b-]	*
*F:	*F:	*F:	*F:	*
*M3/4	*M3/4	*M3/4	*M3/4	*
*	*all\right	*	*	*
=1	=1	=1	=1	=1
4F 4C 4FF\	8.aL 8.f/	8.F\	8.a/	Be-
.	16b-Jk 16g/	16G\	16b-/	-ne-
4F 4C 4FF\	8ccL 8a\	8A\	8cc\	-dic-
.	8cc 8a\	8A\	8cc\	-tus
4r	8cc 8a\	8r	8r	.
.	8ccJ 8a\	8A\	8cc\	qui
=2	=2	=2	=2	=2
4B- 4F 4BB-\	8.ddL 8.b-\	8.B-\L	8.dd\L	ve-
.	16eeJk 16cc\	16c\Jk	16ee\Jk	.
!	!	!LO:N:vis=8	!	!
8r	4ff 4dd\	4d\	4ff\	-nit
8B- 8F 8BB-\	.	.	.	.
8B-L 8F 8BB-\	8r	8r	8r	.
8B-J 8F 8BB-\	8ff 8dd\	8d\	8ff\	Be-
=3	=3	=3	=3	=3
4B- 4F 4BB-\	(16ffLL 16dd\	16d\LL	16ff\LL	-ne-
.	16ee 16cc\	16c\JJ	16ee\JJ	.
.	16dd 16b-\	16B-\	16dd\	-dic-
.	16ccJJ 16a\)	16A\	16cc\	-tus
4r	4cc 4a\	4A\	4cc\	qui
4F 4C 4FF\	(16ccLL 16a\	(16A\LL	(16cc\LL	ve-
.	16b- 16g\	16G\	16b-\	.
.	16a 16f\	16F\	16a\	.
.	16b-JJ 16g\)	16G\JJ)	16b-\JJ)	.
=4	=4	=4	=4	=4
*^	*	*	*	*
*tremolo	*	*	*	*	*
8E/L	4E\	4b- 4g\	4G\	4b-\	.
8E/J	.	.	.	.	.
*Xtremolo	*	*	*	*	*
(8FL 8FF\	2ryy	(8aL 8f\	4F\	4a/	-nit
8F 8FF\	.	8cc 8a\	.	.	.
8E\	.	8b- 8g\	4r	4r	.
8C\J)	.	8gJ 8e\)	.	.	.
*v	*v	*	*	*	*
=5	=5	=5	=5	=5
4F 4C 4FF\	8.aL 8.f/	8.F\	8.a/	in
.	16b-Jk 16g/	16G\	16b-\	no-
4F 4C 4FF\	8ccL 8a\	8A\	8cc\	-mi-
.	8cc 8a\	8A\	8cc\	-ne
4r	8cc 8a\	8r	8r	.
.	8ccJ 8a\	8A\	8cc\	Do
!!LO:LB:g=original
=6	=6	=6	=6	=6
4B- 4F 4BB-\	8.ddL 8.b-\	8.B-\L	8.dd\L	mi-
.	16eeJk 16cc\	16c\Jk	16ee\Jk	.
8r	4ff 4dd\	4d\	4ff\	-ni
8B- 8F 8BB-\	.	.	.	.
8B-L 8F 8BB-\	8r	8r	8r	.
8B-J 8F 8BB-\	8ff 8dd\	8d\	8ff\	O-
=7	=7	=7	=7	=7
8B- 8F 8BB-\	16ffLL 16dd\	16d\LL	16ff\LL	-ſan-
.	16ee 16cc\	16c\JJ	16ee\JJ	.
8r	16dd 16b-\	16B-\	16dd\	-na
.	16ccJJ 16a\	16A\	16cc\	in
!LO:TX:t=P:problem=mixed beam	!	!	!	!
8F\L	8.ccL 8.a\	8.A\L	8.cc\L	ex-
8FF/J	.	.	.	.
.	16aJk 16f\	16F\Jk	16a\Jk	.
4C 4CC/	16ccLL 16a/	16A\LL	16cc\LL	.
.	16b- 16g/	16G\	16b-\	.
!	!LO:TX:b:t=a f	!	!	!
.	16a 16f/	16F\	16a\	.
.	16gJJ 16e/	16E\JJ	16g\JJ	.
=8	=8	=8	=8	=8
4E 4EE\	8.gL 8.B-/	8.C/L	8.g/L	-cel-
.	16fJk 16A/	16C/Jk	16f/Jk	.
4F 4FF\	4f 4A/	4F\	4f/	-sis
!	!LO:TX:b:i:t=VS&colon;	!	!	!
4r	4r	4r	4r	.
!!LO:PB:g=original
=9:|!|:	=9:|!|:	=9:|!|:	=9:|!|:	=9:|!|:
*>B	*>B	*>B	*>B	*>B
.	8qgg/	.	.	.
4F 4C 4FF\	(16ff\LL	2.r	2.r	.
.	16ee\	.	.	.
.	16ff\	.	.	.
.	16gg\JJ)	.	.	.
8FL 8BB-/	8ff\L	.	.	.
8GJ 8C/	8ee\J	.	.	.
8cL 8G\	4cc\	.	.	.
8E\J	.	.	.	.
=10	=10	=10	=10	=10
.	8qgg/	.	.	.
4F 4C 4FF\	(16ff\LL	2.r	2.r	.
.	16ee\	.	.	.
.	16ff\	.	.	.
.	16aa\JJ)	.	.	.
4G 4C\	8.gg\L	.	.	.
.	16ee\Jk	.	.	.
!LO:TX:t=P:problem=mixed beam	!	!	!	!
8GL 8C\	4cc\	.	.	.
8CC/J	.	.	.	.
=11	=11	=11	=11	=11
8B-L 8BB-\	16b-LL 16g/	2.r	2.r	.
.	16a 16f/	.	.	.
8B-J 8BB-\	16b- 16g/	.	.	.
.	16ddJJ 16b-/	.	.	.
4c 4G 4C\	8.ccL 8.a\	.	.	.
.	16aJk 16f\	.	.	.
4C 4CC/	8.b-L 8.g\	.	.	.
.	16gJk 16e\	.	.	.
=12	=12	=12	=12	=12
4F 4C 4FF\	8.aL 8.c/	2.r	2.r	.
.	16fJk 16A/	.	.	.
8C/L	16eLL 16G/	.	.	.
.	16f 16A/	.	.	.
8CC/J	16g 16B-/	.	.	.
.	16eJJ 16G/	.	.	.
4F 4C 4FF\	4f 4A/	.	.	.
=:|!	=:|!	=:|!	=:|!	=:|!
*-	*-	*-	*-	*-
!!!system-decoration: <(s1,s2)>{(s3,s4)}
!!!ENC: Andrzej Gręziak
!!!END: 2021-11-16
!!!ENC: Andrzej Kubiczek
!!!END: 2021-12-12
!!!YEC: Copyright 2022 Narodowy Instytut Fryderyka Chopina (https://polishscores.org)
!!!YEM: License CC-BY-4.0 (https://creativecommons.org/licenses/by/4.0)
